src/assets/logos/v2/atlasfunded.svg

<svg width="321" height="43" viewBox="0 0 321 43" fill="none" xmlns="http://www.w3.org/2000/svg">
<path d="M46.9011 32.918C43.2867 29.6353 39.006 27.1733 34.3099 25.8055L25.7131 8.6905L17.124 25.7903C12.4431 27.1455 8.17257 29.5872 4.56061 32.8471L21.0601 0H30.3661L46.9011 32.918Z" fill="#0D282C"/>
<path d="M51.4237 41.9238H42.214C38.141 37.4278 32.257 34.6011 25.7119 34.6011C19.1668 34.6011 13.2828 37.4278 9.20984 41.9238H6.00815e-05L0.304031 41.321C0.304031 41.321 0.304033 41.3159 0.306566 41.3159C3.75896 35.3534 9.25037 30.7181 15.8284 28.365C18.9186 27.2581 22.2494 26.6553 25.7195 26.6553C29.1896 26.6553 32.5078 27.2556 35.5929 28.3599C42.1228 30.6902 47.5863 35.2723 51.0463 41.1715C51.0488 41.1741 51.0514 41.1791 51.0539 41.1842L51.4237 41.9238Z" fill="#0D282C"/>
<path d="M148.748 41.9912H143.596V3.35303H167.53V7.96815H148.748V19.5596H165.384V24.1747H148.748V41.9912ZM190.452 14.0859H195.282V41.9912H190.505V38.8786C190.505 38.6103 190.398 38.503 190.13 38.503C189.862 38.503 189.754 38.664 189.54 38.9323C187.661 41.2935 184.871 42.7961 180.792 42.7961C173.816 42.7961 169.523 38.7713 169.523 31.5267V14.0859H174.353V30.7217C174.353 35.8198 177.036 38.503 181.866 38.503C187.232 38.503 190.452 35.2831 190.452 28.5751V14.0859ZM205.488 41.9912H200.658V14.0859H205.434V17.1984C205.434 17.4667 205.541 17.574 205.81 17.574C206.078 17.574 206.185 17.413 206.4 17.1447C208.225 14.7298 211.069 13.2809 215.147 13.2809C222.124 13.2809 226.417 17.3057 226.417 24.5503V41.9912H221.587V25.3553C221.587 20.2572 218.904 17.574 214.074 17.574C208.708 17.574 205.488 20.7939 205.488 27.5019V41.9912ZM230.022 28.0385C230.022 17.8423 236.999 13.2809 243.76 13.2809C247.678 13.2809 250.737 14.5152 252.991 17.1984C253.152 17.413 253.313 17.574 253.581 17.574C253.849 17.574 253.957 17.413 253.957 17.1447V3.35303H258.786V41.9912H254.01V38.8786C254.01 38.6103 253.903 38.4493 253.635 38.4493C253.366 38.4493 253.205 38.6103 253.044 38.825C250.737 41.5618 247.678 42.7961 243.76 42.7961C236.999 42.7961 230.022 38.2347 230.022 28.0385ZM234.906 28.0385C234.906 34.7465 238.931 38.503 244.565 38.503C250.2 38.503 254.225 34.7465 254.225 28.0385C254.225 21.3305 250.2 17.574 244.565 17.574C238.931 17.574 234.906 21.3305 234.906 28.0385ZM284.948 33.1366H289.992C289.187 37.376 285.538 42.7961 276.684 42.7961C267.454 42.7961 262.516 37.1614 262.516 28.0385C262.516 18.9156 267.99 13.2809 276.576 13.2809C285.27 13.2809 289.885 18.9156 289.885 26.6969V29.3801H267.319C267.641 35.6588 271.505 38.6103 276.684 38.6103C281.889 38.6103 284.17 36.3028 284.948 33.1366ZM276.576 17.4667C271.961 17.4667 268.258 20.0962 267.453 25.3553H285.055C284.841 20.2036 281.674 17.4667 276.576 17.4667ZM292.076 28.0385C292.076 17.8423 299.052 13.2809 305.814 13.2809C309.731 13.2809 312.79 14.5152 315.044 17.1984C315.205 17.413 315.366 17.574 315.634 17.574C315.903 17.574 316.01 17.413 316.01 17.1447V3.35303H320.84V41.9912H316.064V38.8786C316.064 38.6103 315.956 38.4493 315.688 38.4493C315.42 38.4493 315.259 38.6103 315.098 38.825C312.79 41.5618 309.731 42.7961 305.814 42.7961C299.052 42.7961 292.076 38.2347 292.076 28.0385ZM296.959 28.0385C296.959 34.7465 300.984 38.503 306.619 38.503C312.253 38.503 316.278 34.7465 316.278 28.0385C316.278 21.3305 312.253 17.574 306.619 17.574C300.984 17.574 296.959 21.3305 296.959 28.0385Z" fill="#0D282C"/>
<path d="M54.9174 16.8118H48.0725V12.2485H54.9174V4.26279H60.0511V12.2485H68.6072V16.8118H60.0511V30.7868V36.4909C60.0511 36.7761 60.1081 36.9472 60.2793 37.1184C60.4504 37.2895 60.6215 37.3465 60.9067 37.3465H66.6108H68.6072V41.9098H63.4736C57.6839 41.9098 54.9174 39.1433 54.9174 33.3537V16.8118ZM72.0399 41.9098V0.840332H77.1736V41.9098H72.0399ZM81.4214 33.1825C81.4214 28.0488 84.8438 24.8831 92.2592 24.5694L103.097 24.113V22.5159C103.097 18.2949 100.929 15.8421 95.6816 15.8421C90.4338 15.8421 88.3233 18.2949 88.2093 21.3751H82.9045C83.1326 15.728 87.1255 11.3929 95.6816 11.3929C104.238 11.3929 108.059 15.728 108.059 22.8011V41.9098H103.154V38.7725C103.154 38.5444 103.04 38.4303 102.812 38.4303C102.584 38.4303 102.469 38.4873 102.241 38.7725C100.131 41.5961 96.9935 42.7654 93.1148 42.7654C85.6994 42.7654 81.4214 38.8866 81.4214 33.1825ZM86.5551 33.1825C86.5551 36.3198 89.1219 38.3162 93.6852 38.3162C99.3893 38.3162 103.097 35.0649 103.097 28.7904V28.4481L92.2592 28.9045C88.2663 29.0756 86.5551 30.6157 86.5551 33.1825ZM124.323 11.3929C131.339 11.3929 136.929 14.4161 137.5 21.6603H132.252C131.853 17.6104 129.115 15.7851 124.323 15.7851C119.532 15.7851 117.535 17.6104 117.535 20.0631C117.535 22.5159 119.304 23.3715 123.354 24.1415L127.575 24.9401C132.993 25.9669 137.728 27.7351 137.728 33.6103C137.728 39.4855 133.222 42.7654 125.578 42.7654C117.935 42.7654 112.202 39.457 111.717 32.384H116.936C117.336 36.3198 120.616 38.3733 125.578 38.3733C130.541 38.3733 132.594 36.4624 132.594 33.8955C132.594 31.3287 130.541 30.4446 126.434 29.6745L122.213 28.8759C116.423 27.7922 112.402 25.8243 112.402 20.1202C112.402 14.4161 117.307 11.3929 124.323 11.3929Z" fill="#0D282C"/>
</svg>

<svg xmlns="http://www.w3.org/2000/svg" width="321" height="43" fill="none" viewBox="0 0 321 43"><path fill="#0d282c" d="M46.901 32.918c-3.614-3.283-7.895-5.745-12.591-7.113L25.713 8.691l-8.589 17.1c-4.68 1.354-8.951 3.796-12.563 7.056L21.06 0h9.305z"/><path fill="#0d282c" d="M51.424 41.924h-9.21c-4.073-4.496-9.957-7.323-16.502-7.323s-12.43 2.827-16.502 7.323H0l.304-.603s0-.005.003-.005a29.43 29.43 0 0 1 15.521-12.951 29.3 29.3 0 0 1 9.892-1.71c3.47 0 6.788.6 9.873 1.705a29.42 29.42 0 0 1 15.46 12.824zm97.324.067h-5.152V3.353h23.934v4.615h-18.782V19.56h16.636v4.615h-16.636zm41.704-27.905h4.83V41.99h-4.777v-3.11c0-.269-.107-.376-.375-.376s-.376.161-.59.43c-1.879 2.36-4.669 3.863-8.748 3.863-6.976 0-11.269-4.025-11.269-11.27v-17.44h4.83v16.636c0 5.098 2.683 7.781 7.513 7.781 5.366 0 8.586-3.22 8.586-9.928zm15.036 27.905h-4.83V14.086h4.776v3.112c0 .269.107.376.376.376.268 0 .375-.161.59-.43 1.825-2.414 4.669-3.863 8.747-3.863 6.977 0 11.27 4.025 11.27 11.27v17.44h-4.83V25.355c0-5.098-2.683-7.781-7.513-7.781-5.366 0-8.586 3.22-8.586 9.928zm24.534-13.952c0-10.197 6.977-14.758 13.738-14.758 3.918 0 6.977 1.234 9.231 3.917.161.215.322.376.59.376s.376-.161.376-.43V3.354h4.829v38.638h-4.776V38.88c0-.269-.107-.43-.375-.43-.269 0-.43.161-.591.376-2.307 2.737-5.366 3.971-9.284 3.971-6.761 0-13.738-4.561-13.738-14.757m4.884 0c0 6.707 4.025 10.464 9.659 10.464s9.66-3.757 9.66-10.465c0-6.707-4.025-10.464-9.66-10.464s-9.659 3.756-9.659 10.464m50.042 5.098h5.044c-.805 4.239-4.454 9.66-13.308 9.66-9.23 0-14.168-5.636-14.168-14.758s5.474-14.758 14.06-14.758c8.694 0 13.309 5.635 13.309 13.416v2.683h-22.566c.322 6.279 4.186 9.23 9.365 9.23 5.205 0 7.486-2.307 8.264-5.473m-8.372-15.67c-4.615 0-8.318 2.63-9.123 7.888h17.602c-.214-5.151-3.381-7.888-8.479-7.888m15.5 10.572c0-10.197 6.976-14.758 13.738-14.758 3.917 0 6.976 1.234 9.23 3.917.161.215.322.376.59.376.269 0 .376-.161.376-.43V3.354h4.83v38.638h-4.776V38.88c0-.269-.108-.43-.376-.43s-.429.161-.59.376c-2.308 2.737-5.367 3.971-9.284 3.971-6.762 0-13.738-4.561-13.738-14.757m4.883 0c0 6.707 4.025 10.464 9.66 10.464s9.659-3.757 9.659-10.465c0-6.707-4.025-10.464-9.659-10.464s-9.66 3.756-9.66 10.464M54.917 16.812h-6.845v-4.564h6.845V4.264h5.134v7.986h8.556v4.563h-8.556V36.49c0 .285.057.456.228.627s.342.228.628.228h7.7v4.564h-5.133c-5.79 0-8.557-2.767-8.557-8.556zM72.04 41.91V.84h5.134v41.07zm9.381-8.727c0-5.134 3.423-8.3 10.838-8.614l10.838-.456v-1.597c0-4.221-2.168-6.674-7.415-6.674-5.248 0-7.359 2.453-7.473 5.533h-5.305c.229-5.647 4.222-9.982 12.778-9.982s12.377 4.335 12.377 11.408V41.91h-4.905v-3.137q0-.343-.342-.343c-.228 0-.343.057-.571.343-2.11 2.823-5.248 3.992-9.126 3.992-7.416 0-11.694-3.878-11.694-9.583m5.134 0c0 3.137 2.567 5.133 7.13 5.133 5.704 0 9.412-3.251 9.412-9.526v-.342l-10.838.456c-3.993.172-5.704 1.712-5.704 4.278m37.768-21.79c7.016 0 12.606 3.023 13.177 10.267h-5.248c-.399-4.05-3.137-5.875-7.929-5.875s-6.788 1.825-6.788 4.278 1.769 3.309 5.819 4.079l4.221.798c5.418 1.027 10.153 2.795 10.153 8.67 0 5.876-4.506 9.155-12.15 9.155-7.643 0-13.376-3.308-13.861-10.381h5.219c.4 3.936 3.68 5.99 8.642 5.99 4.963 0 7.016-1.912 7.016-4.479 0-2.566-2.053-3.45-6.16-4.22l-4.221-.8c-5.79-1.083-9.811-3.05-9.811-8.755 0-5.704 4.905-8.727 11.921-8.727"/></svg>
